**kern	**kern	**kern	**kern
*staff3	*staff4	*staff1	*staff2
*clefF4	*clefF4	*clefG2	*clefG2
*k[f#c#]	*k[f#c#]	*k[f#c#]	*k[f#c#]
*M2/4	*M2/4	*M2/4	*M2/4
*D:	*D:	*D:	*D:
=-	=-	=-	=-
4.G	[2AA	8eL	4.c#
.	.	8b^J	.
.	.	[4a	.
8C#	.	.	8g
=25	=25	=25	=25
4.D	2AA_	8aL]	4.f#
.	.	8ee^J	.
.	.	[4dd	.
8F#	.	.	8a
=26	=26	=26	=26
8E	8AA]	(8ddL]	8g
8r	8r	8cc#J)	8r
[4G	[4AA	(8bL	[4c# 4e
.	.	8aJ)	.
=27	=27	=27	=27
(16GLL]	2AA_	8a	(16c#LL]
16F#	.	.	16d
16E	.	8r	16e
16DJJ	.	.	16f#JJ
16C#LL	.	4r	16gLL
16D	.	.	16f#
16E	.	.	16e
16F#JJ)	.	.	16dJJ)
=28	=28	=28	=28
4.G	2AA_	8eL	4.c#
.	.	8b^J	.
.	.	[4a	.
8G	.	.	8c#
=29	=29	=29	=29
4.F#	2AA_	8aL]	4.d
.	.	8ee^J	.
.	.	[4dd	.
8D	.	.	8f#
=30	=30	=30	=30
8E	8AA]	8ddL]	8g
8r	8r	8cc#J	8r
8G	8AA	8bL	8c# 8e
8r	8r	8aJ	8r
=31	=31	=31	=31
8F#	8D	8a	8d
8r	8r	8r	8r
4r	4r	4r	4r
=32:|!	=32:|!	=32:|!	=32:|!
*-	*-	*-	*-
